src/icons/speed.svg

<svg xmlns="http://www.w3.org/2000/svg" viewBox="0 0 18 18"><path xmlns="http://www.w3.org/2000/svg" d="M12.2723 6.4H8.90734L9.95734 0.460004L9.04734 0.0975037L3.30984 8.75L3.72734 9.525H7.17734L6.23484 15.525L7.14984 15.87L12.6948 7.1675L12.2723 6.4ZM7.59484 13.3275L8.24984 9.11L7.74984 8.5325H4.65734L8.55484 2.6525L7.81984 6.8125L8.31984 7.4H11.3698L7.59484 13.3275Z"/></svg>

<svg xmlns="http://www.w3.org/2000/svg" viewBox="0 0 18 18"><path xmlns="http://www.w3.org/2000/svg" d="M12.272 6.4H8.907L9.957.46l-.91-.362L3.31 8.75l.417.775h3.45l-.942 6 .915.345 5.545-8.702zm-4.677 6.928L8.25 9.11l-.5-.577H4.657l3.898-5.88-.735 4.16.5.587h3.05z"/></svg>
